X:1
T:Title
%%score ( 1 2 ) { 3 | 4 }
L:1/8
Q:1/4=115
M:4/4
K:F
V:1 treble nm="Grand Piano, Unnamed-000"
V:2 treble 
V:3 bass nm="Choir Pad, Coronation, CM"
V:4 bass 
V:1
 [A,C]2 [CF]2 [CF]2 [FA]2 | [FA]2 [EG]2 F2 [EG]2 | [FA]2 [EG]2 F2 [FA]2 | [EG]2 F6 | %4
w: By~Oliver~Holden,~1793 * * *||||
 [CG]2 [FA]2 [CG]2 [A,F]2 | [FA]2 [Ac][GB] [FA][EG] [FA]2 | [Ec]2 [Fc]4 [Gc]2- | %7
w: |||
 [Gc]2 [Fd]4 [Ec]2 | [D=B]2 [Ec]6 | [CA]2 [Cc]2 [CA]2 [CF]2 | z4 .G2 z2 | z8 | z2 A4 z2 | %13
w: ||||||
 [EG]2 F6- | F2 z2 z4 |] %15
w: ||
V:2
 x8 | x8 | x8 | x8 | x8 | x8 | x8 | x8 | x8 | x8 | [CA]2 [EG]F E-[EA] [EG]2 | F2 [Fc]4 [DB]2- | %12
 [DB]2 C2- C-[C-B] [CG]2 | x8 | x8 |] %15
V:3
 F,2 A,2 A,2 C2 | C2 B,2 A,2 B,2 | C2 B,2 A,2 C2 | B,2 A,6 | G,2 A,2 G,2 F,2 | A,2 CB, A,G, A,2 | %6
 G,2 A,4 G,2- | G,2 A,4 G,2- | G,2 G,6 | F,2 A,2[K:treble] C2 C2 | C2 B,A,[K:bass] B,C B,2 | %11
 A,2 F,4 F,2- | F,2 F,2- F,G,E,G, | B,2 A,6- | A,2 z2 z4 |] %15
V:4
 F,,2 F,,2 F,,2 F,2 | F,2 C,2 C,2 C,2 | F,2 C,2 D,2 C,2 | C,2 F,,6 | C,2 F,2 C,2 A,,2 | %5
 F,2 A,G, F,E, F,2 | C,2 F,4 E,2- | E,2 D,4 z2 | z2 C,6 | z2 F,2 F,2 A,2 | F,2 C,2 C,2 C,2 | %11
 D,2 A,,4 B,,2- | B,,2 C,6 | C,2 F,,6- | F,,2 z2 z4 |] %15

